logos/scrattch.svg

<?xml version="1.0" encoding="UTF-8"?>
<!DOCTYPE svg PUBLIC "-//W3C//DTD SVG 1.1//EN" "http://www.w3.org/Graphics/SVG/1.1/DTD/svg11.dtd">
<svg xmlns="http://www.w3.org/2000/svg" version="1.1" width="232px" height="114px" style="shape-rendering:geometricPrecision; text-rendering:geometricPrecision; image-rendering:optimizeQuality; fill-rule:evenodd; clip-rule:evenodd" xmlns:xlink="http://www.w3.org/1999/xlink">
<g><path style="opacity:1" fill="#0e1116" d="M -0.5,-0.5 C 76.8333,-0.5 154.167,-0.5 231.5,-0.5C 231.5,37.5 231.5,75.5 231.5,113.5C 154.167,113.5 76.8333,113.5 -0.5,113.5C -0.5,75.5 -0.5,37.5 -0.5,-0.5 Z"/></g>
<g><path style="opacity:1" fill="#85898f" d="M 188.5,55.5 C 186.5,55.5 184.5,55.5 182.5,55.5C 182.5,66.8333 182.5,78.1667 182.5,89.5C 181.505,78.012 181.172,66.3453 181.5,54.5C 184.059,54.1984 186.393,54.5318 188.5,55.5 Z"/></g>
<g><path style="opacity:1" fill="#e0e5eb" d="M 188.5,55.5 C 188.335,59.1817 188.501,62.8484 189,66.5C 194.281,62.301 199.281,62.6343 204,67.5C 205.391,74.7458 205.891,82.0791 205.5,89.5C 203.167,89.5 200.833,89.5 198.5,89.5C 198.666,83.4908 198.499,77.4908 198,71.5C 195.847,69.5561 193.347,69.0561 190.5,70C 189.809,71.0674 189.309,72.2341 189,73.5C 188.501,78.8229 188.334,84.1563 188.5,89.5C 186.5,89.5 184.5,89.5 182.5,89.5C 182.5,78.1667 182.5,66.8333 182.5,55.5C 184.5,55.5 186.5,55.5 188.5,55.5 Z"/></g>
<g><path style="opacity:1" fill="#d7dde2" d="M 124.5,57.5 C 126.833,57.5 129.167,57.5 131.5,57.5C 131.5,59.5 131.5,61.5 131.5,63.5C 132.833,63.5 134.167,63.5 135.5,63.5C 135.5,65.5 135.5,67.5 135.5,69.5C 134.167,69.5 132.833,69.5 131.5,69.5C 131.5,74.5 131.5,79.5 131.5,84.5C 132.833,84.5 134.167,84.5 135.5,84.5C 135.5,86.1667 135.5,87.8333 135.5,89.5C 131.397,90.2309 127.897,89.2309 125,86.5C 124.501,80.8431 124.334,75.1764 124.5,69.5C 123.167,69.5 121.833,69.5 120.5,69.5C 120.5,67.5 120.5,65.5 120.5,63.5C 121.833,63.5 123.167,63.5 124.5,63.5C 124.5,61.5 124.5,59.5 124.5,57.5 Z"/></g>
<g><path style="opacity:1" fill="#d7dde2" d="M 141.5,57.5 C 143.833,57.5 146.167,57.5 148.5,57.5C 148.5,59.5 148.5,61.5 148.5,63.5C 149.833,63.5 151.167,63.5 152.5,63.5C 152.5,65.5 152.5,67.5 152.5,69.5C 151.167,69.5 149.833,69.5 148.5,69.5C 148.5,74.5 148.5,79.5 148.5,84.5C 149.833,84.5 151.167,84.5 152.5,84.5C 152.5,86.1667 152.5,87.8333 152.5,89.5C 148.397,90.2309 144.897,89.2309 142,86.5C 141.501,80.8431 141.334,75.1764 141.5,69.5C 140.167,69.5 138.833,69.5 137.5,69.5C 137.5,67.5 137.5,65.5 137.5,63.5C 138.833,63.5 140.167,63.5 141.5,63.5C 141.5,61.5 141.5,59.5 141.5,57.5 Z"/></g>
<g><path style="opacity:1" fill="#dbe1e6" d="M 34.5,63.5 C 40.0389,62.6384 44.8722,63.9718 49,67.5C 51.4676,70.2517 50.8009,71.5851 47,71.5C 44.3964,70.7221 41.8964,69.7221 39.5,68.5C 36.6038,69.0237 35.9372,70.5237 37.5,73C 40.7835,74.1245 44.1169,75.1245 47.5,76C 51.957,81.1348 51.2904,85.4681 45.5,89C 41.5,89.6667 37.5,89.6667 33.5,89C 30.6923,87.2067 29.0256,84.7067 28.5,81.5C 32.597,81.386 36.2637,82.386 39.5,84.5C 42.512,84.8213 43.8453,83.488 43.5,80.5C 38.3854,80.3016 34.052,78.4683 30.5,75C 28.3208,69.8242 29.6542,65.9908 34.5,63.5 Z"/></g>
<g><path style="opacity:1" fill="#dae0e5" d="M 60.5,63.5 C 66.9812,62.4874 72.1478,64.4874 76,69.5C 76.49,70.7932 76.6567,72.1266 76.5,73.5C 72.8307,74.3029 70.164,73.1362 68.5,70C 60.6682,69.1791 57.8349,72.6791 60,80.5C 62.7434,85.3512 65.9101,85.6845 69.5,81.5C 71.7427,80.5258 74.076,80.1924 76.5,80.5C 76.2759,84.5616 74.2759,87.395 70.5,89C 57.2202,91.3867 51.3869,85.8867 53,72.5C 54.268,68.4047 56.768,65.4047 60.5,63.5 Z"/></g>
<g><path style="opacity:1" fill="#e1e6eb" d="M 80.5,89.5 C 80.5,81.1667 80.5,72.8333 80.5,64.5C 82.8211,64.2289 84.8211,64.8955 86.5,66.5C 87.1067,66.3764 87.44,66.0431 87.5,65.5C 87.6107,64.8826 87.944,64.3826 88.5,64C 90.4727,63.5045 92.4727,63.3379 94.5,63.5C 94.5,65.5 94.5,67.5 94.5,69.5C 91.6354,69.0548 89.1354,69.7215 87,71.5C 86.5005,77.4908 86.3338,83.4908 86.5,89.5C 84.5,89.5 82.5,89.5 80.5,89.5 Z"/></g>
<g><path style="opacity:1" fill="#dde3e8" d="M 102.5,71.5 C 100.219,71.9227 98.5521,71.256 97.5,69.5C 98.2543,66.909 99.921,65.0757 102.5,64C 108.645,62.412 113.811,63.912 118,68.5C 118.5,75.4921 118.666,82.4921 118.5,89.5C 115.606,89.9577 113.106,89.291 111,87.5C 107.405,89.4559 103.572,89.9559 99.5,89C 94.6875,84.9586 94.3541,80.6253 98.5,76C 102.7,74.6326 107.033,74.1326 111.5,74.5C 110.515,67.8335 107.515,66.8335 102.5,71.5 Z"/></g>
<g><path style="opacity:1" fill="#dae0e5" d="M 162.5,63.5 C 168.981,62.4874 174.148,64.4874 178,69.5C 178.49,70.7932 178.657,72.1266 178.5,73.5C 174.831,74.3029 172.164,73.1362 170.5,70C 162.668,69.1791 159.835,72.6791 162,80.5C 164.743,85.3512 167.91,85.6845 171.5,81.5C 173.743,80.5258 176.076,80.1924 178.5,80.5C 178.276,84.5616 176.276,87.395 172.5,89C 159.22,91.3867 153.387,85.8867 155,72.5C 156.268,68.4047 158.768,65.4047 162.5,63.5 Z"/></g>
<g><path style="opacity:1" fill="#a4a9ae" d="M 87.5,65.5 C 87.44,66.0431 87.1067,66.3764 86.5,66.5C 84.8211,64.8955 82.8211,64.2289 80.5,64.5C 80.5,72.8333 80.5,81.1667 80.5,89.5C 79.507,81.0161 79.1736,72.3494 79.5,63.5C 82.5331,63.1315 85.1998,63.7982 87.5,65.5 Z"/></g>
<g><path style="opacity:1" fill="#65696f" d="M 97.5,69.5 C 98.5521,71.256 100.219,71.9227 102.5,71.5C 100.735,72.4614 98.7354,72.7947 96.5,72.5C 96.2627,71.209 96.596,70.209 97.5,69.5 Z"/></g>
<g><path style="opacity:1" fill="#181a1f" d="M 104.5,78.5 C 106.833,78.5 109.167,78.5 111.5,78.5C 111.11,83.534 108.444,85.3673 103.5,84C 102.243,81.9235 102.576,80.0902 104.5,78.5 Z"/></g>
</svg>

<svg xmlns="http://www.w3.org/2000/svg" width="232" height="114" style="shape-rendering:geometricPrecision;text-rendering:geometricPrecision;image-rendering:optimizeQuality;fill-rule:evenodd;clip-rule:evenodd"><path style="opacity:1" fill="#0e1116" d="M-.5-.5h232v114H-.5V-.5z"/><path style="opacity:1" fill="#85898f" d="M188.5 55.5h-6v34c-.995-11.488-1.328-23.155-1-35 2.559-.302 4.893.032 7 1z"/><path style="opacity:1" fill="#e0e5eb" d="M188.5 55.5a60.93 60.93 0 0 0 .5 11c5.281-4.199 10.281-3.866 15 1a90.896 90.896 0 0 1 1.5 22h-7c.166-6.01-.001-12.01-.5-18-2.153-1.944-4.653-2.444-7.5-1.5a11.339 11.339 0 0 0-1.5 3.5 128.508 128.508 0 0 0-.5 16h-6v-34h6z"/><path style="opacity:1" fill="#d7dde2" d="M124.5 57.5h7v6h4v6h-4v15h4v5c-4.103.73-7.603-.27-10.5-3a145.05 145.05 0 0 1-.5-17h-4v-6h4v-6zM141.5 57.5h7v6h4v6h-4v15h4v5c-4.103.73-7.603-.27-10.5-3a145.05 145.05 0 0 1-.5-17h-4v-6h4v-6z"/><path style="opacity:1" fill="#dbe1e6" d="M34.5 63.5c5.539-.862 10.372.472 14.5 4 2.468 2.752 1.8 4.085-2 4a44.535 44.535 0 0 1-7.5-3c-2.896.524-3.563 2.024-2 4.5a136.07 136.07 0 0 0 10 3c4.457 5.135 3.79 9.468-2 13-4 .667-8 .667-12 0-2.808-1.793-4.474-4.293-5-7.5 4.097-.114 7.764.886 11 3 3.012.321 4.345-1.012 4-4-5.115-.198-9.448-2.032-13-5.5-2.18-5.176-.846-9.01 4-11.5z"/><path style="opacity:1" fill="#dae0e5" d="M60.5 63.5c6.481-1.013 11.648.987 15.5 6a8.434 8.434 0 0 1 .5 4c-3.67.803-6.336-.364-8-3.5-7.832-.82-10.665 2.68-8.5 10.5 2.743 4.851 5.91 5.184 9.5 1a13.117 13.117 0 0 1 7-1c-.224 4.062-2.224 6.895-6 8.5-13.28 2.387-19.113-3.113-17.5-16.5 1.268-4.095 3.768-7.095 7.5-9z"/><path style="opacity:1" fill="#e1e6eb" d="M80.5 89.5v-25c2.321-.271 4.321.395 6 2 .607-.124.94-.457 1-1 .11-.617.444-1.117 1-1.5a18.436 18.436 0 0 1 6-.5v6c-2.865-.445-5.365.222-7.5 2-.5 5.99-.666 11.99-.5 18h-6z"/><path style="opacity:1" fill="#dde3e8" d="M102.5 71.5c-2.281.423-3.948-.244-5-2 .754-2.591 2.421-4.424 5-5.5 6.145-1.588 11.311-.088 15.5 4.5.5 6.992.666 13.992.5 21-2.894.458-5.394-.209-7.5-2-3.595 1.956-7.428 2.456-11.5 1.5-4.813-4.041-5.146-8.375-1-13 4.2-1.367 8.533-1.867 13-1.5-.985-6.666-3.985-7.666-9-3z"/><path style="opacity:1" fill="#dae0e5" d="M162.5 63.5c6.481-1.013 11.648.987 15.5 6a8.43 8.43 0 0 1 .5 4c-3.669.803-6.336-.364-8-3.5-7.832-.82-10.665 2.68-8.5 10.5 2.743 4.851 5.91 5.184 9.5 1a13.118 13.118 0 0 1 7-1c-.224 4.062-2.224 6.895-6 8.5-13.28 2.387-19.113-3.113-17.5-16.5 1.268-4.095 3.768-7.095 7.5-9z"/><path style="opacity:1" fill="#a4a9ae" d="M87.5 65.5c-.06.543-.393.876-1 1-1.679-1.605-3.679-2.271-6-2v25c-.993-8.484-1.326-17.15-1-26 3.033-.368 5.7.298 8 2z"/><path style="opacity:1" fill="#65696f" d="M97.5 69.5c1.052 1.756 2.719 2.423 5 2-1.765.961-3.765 1.295-6 1-.237-1.291.096-2.291 1-3z"/><path style="opacity:1" fill="#181a1f" d="M104.5 78.5h7c-.39 5.034-3.056 6.867-8 5.5-1.257-2.076-.924-3.91 1-5.5z"/></svg>
